!!!COM: Palestrina, Giovanni Perluigi da
!!!OPR: Ascendo ad Patrem
!!!OTL: Credo
**kern	**kern	**kern	**kern	**kern
*Ibass	*Itenor	*Itenor	*Icalto	*Icant
!Bassus	!Tenor 2	!Tenor 1	!Altus	!Cantus
*clefF4	*clefGv2	*clefGv2	*clefG2	*clefG2
*k[]	*k[]	*k[]	*k[]	*k[]
*C:ion	*C:ion	*C:ion	*C:ion	*C:ion
*M4/2	*M4/2	*M4/2	*M4/2	*M4/2
=1	=1	=1	=1	=1
0r	0d	0G	0g	0b
=2	=2	=2	=2	=2
0r	2.e	1.c	2.g	1.cc
.	4f	.	4f	.
.	2g	.	2e	.
.	2a	2A	2f	2cc
=3	=3	=3	=3	=3
0r	2g	2B	2d	2dd
.	2g	2c	2c	2ee
.	1c	1A	2e	1cc
.	.	.	2f#	.
=4	=4	=4	=4	=4
0r	2d	2G	0g	0b
.	2G	2d	.	.
.	2G	2d	.	.
.	2G	2d	.	.
=5	=5	=5	=5	=5
1C	[0c	0e	2r	1r
.	.	.	2g	.
2C	.	.	2g	2r
2C	.	.	2g	2cc
=6	=6	=6	=6	=6
1F	1c]	2f	1a	2cc
.	.	4F	.	2cc
.	.	4G	.	.
2D	2d	4A	2a	2ff
.	.	4B	.	.
2E	2G	4c	2g	2ee
.	.	4B	.	.
=7	=7	=7	=7	=7
2.F	2c	4A	2.a	1cc
.	.	4F	.	.
.	1A	1c	.	.
4E	.	.	4g	.
1D	.	.	1f	1dd
.	4G	2B	.	.
.	4F	.	.	.
=8	=8	=8	=8	=8
1C	2G	0c	1e	1ee
.	2.g	.	.	.
2r	.	.	2r	[1ee
.	4f	.	.	.
[2c	4e	.	[2g	.
.	4d	.	.	.
=9	=9	=9	=9	=9
2c]	2c	0r	2g]	2ee]
2B	2d	.	2g	2dd
2A	2e	.	2a	2cc
2A	2c	.	2f	2cc
=10	=10	=10	=10	=10
0G	4d	1r	1g	2b
.	4c	.	.	.
.	4B	.	.	2.dd
.	4A	.	.	.
.	1B	[1g	2.dd	.
.	.	.	.	4cc
.	.	.	.	4b
.	.	.	4cc	4a
=11	=11	=11	=11	=11
0r	0r	2g]	2b	2g
.	.	2f	2.a	2a
.	.	1e	.	2b
.	.	.	4g	.
.	.	.	[2g	4a
.	.	.	.	4g
=12	=12	=12	=12	=12
1r	2r	2.d	2g]	1a
.	2.d	.	2f#	.
.	.	4c	.	.
[1G	.	4B	2g	1dd
.	4c	4A	.	.
.	4B	2G	[2b	.
.	4A	.	.	.
=13	=13	=13	=13	=13
2G]	2G	1d	2b]	2dd
2F	2A	.	2a	1dd
2E	2B	2e	2g	.
2E	2G	2g	2g	2cc
=14	=14	=14	=14	=14
2D	2.d	2g	2.a	2.dd
2D	.	2f#	.	.
.	4d	.	4a	4dd
1G	1d	2g	1b	1dd
.	.	[2d	.	.
=15	=15	=15	=15	=15
2.G	2.B	4d]	0r	0r
.	.	4d	.	.
.	.	2d	.	.
4G	4B	.	.	.
2G	2B	2e	.	.
2A	2c	[2f	.	.
=16	=16	=16	=16	=16
2.G	2.B	4f]	1r	0r
.	.	4e	.	.
.	.	1e	.	.
8F	8A	.	.	.
8E	8G	.	.	.
2F	2A	.	2r	.
2F	2A	2d	[2a	.
=17	=17	=17	=17	=17
1E	1B	1e	2a]	0b
.	.	.	4g#	.
.	.	.	4f#	.
1E	1e	2r	1g#	.
.	.	2e	.	.
=18	=18	=18	=18	=18
0D	1.A	0f#	0a	0dd
.	[2d	.	.	.
=19	=19	=19	=19	=19
0G	4d]	0g	0d	2.b
.	4c	.	.	.
.	4B	.	.	.
.	4A	.	.	4cc
.	1B	.	.	1dd
=20	=20	=20	=20	=20
2C	1c	2e	2g	2ee
2.c	.	2.e	2.g	2.cc
.	1r	.	.	.
4c	.	4e	4g	4cc
2A	.	2e	2a	2cc
=21	=21	=21	=21	=21
1G	0r	1g	1b-	2dd
.	.	.	.	2ee
1F	.	1c	2a	[1ff
.	.	.	[2a	.
=22	=22	=22	=22	=22
2D	0r	2f	2a]	2ff]
2E	.	2g	2g	2ee
1F	.	1a	2f	4dd
.	.	.	.	4cc
.	.	.	2e	[2cc
=23	=23	=23	=23	=23
2.G	1r	2.g	1d	2cc]
.	.	.	.	2b
4G	.	4g	.	.
[1C	2r	2e	1c	2cc
.	[2c	[2g	.	[2ee
=24	=24	=24	=24	=24
1C]	2c]	2g]	2.cc	2ee]
.	2c	2g	.	2ee
.	.	.	4cc	.
1r	2A	2a	2cc	2ff
.	2c	2g	2cc	2ee
=25	=25	=25	=25	=25
0r	1G	1g	1b	1dd
.	2.A	2e	2a	2cc
.	.	[2f	[2a	[2cc
.	4B	.	.	.
=26	=26	=26	=26	=26
0r	1c	2f]	2a]	2cc]
.	.	2e	2g	2cc
.	1r	2f	2a	2dd
.	.	2g	2b	2dd
=27	=27	=27	=27	=27
0r	2r	1c	2.cc	2.ee
.	1c	.	.	.
.	.	.	8b	4dd
.	.	.	8a	.
.	.	2r	4g	4ee
.	.	.	4a	4ff
.	2B	2d	4b	[2gg
.	.	.	4g	.
=28	=28	=28	=28	=28
0r	2c	2e	1a	2gg]
.	2d	2f	.	2ff
.	1G	2.g	2.b	4ee
.	.	.	.	4dd
.	.	.	.	[2dd
.	.	4f	4b	.
=29	=29	=29	=29	=29
1r	2A	2e	1a	2dd]
.	2A	2e	.	2cc#
2r	2d	2f	2r	1dd
2G	2B	2d	2g	.
=30	=30	=30	=30	=30
2F#	2A	2d	2a	0r
2G	2B	2d	2g	.
1E	1G	1c	1g	.
=31	=31	=31	=31	=31
2D	2A	1d	2f	1r
2d	2f	.	2a	.
2c#	2e	1r	2a	2r
2d	2f	.	2a	2dd
=32	=32	=32	=32	=32
2B-	2d	0r	2g	2dd
2B-	2d	.	2g	2dd
1A	1e	.	2.a	2cc#
.	.	.	.	2cc#
.	.	.	4g	.
=33	=33	=33	=33	=33
2r	0r	1.d	2f#	2dd
1G	.	.	1g	1b
2D	.	2d	2f#	2a
=34	=34	=34	=34	=34
1G	1r	1d	1g	1b
2C	2r	[1g	1e	2cc
2c	2e	.	.	2cc
=35	=35	=35	=35	=35
2G	2d	1g]	1r	2b
2c	2e	.	.	2cc
4F	[1c	2r	2r	4a
4G	.	.	.	4b
4A	.	2f	2a	4cc
4B	.	.	.	4dd
=36	=36	=36	=36	=36
2c	1c]	2e	2g	4ee
.	.	.	.	4dd
2F	.	2f	2a	1cc
1G	[1g	1d	4g	.
.	.	.	8f	.
.	.	.	8e	.
.	.	.	2d	2b
=37	=37	=37	=37	=37
1r	1g]	1c	1e	0cc
2.F	2.f	2.c	2.a	.
4F	4f	4c	4a	.
=38	=38	=38	=38	=38
2A	2e	2c	2a	0r
2B-	4d	2d	2f	.
.	2f	.	.	.
1G	.	1B-	1g	.
.	8e	.	.	.
.	8d	.	.	.
.	2e	.	.	.
=39	=39	=39	=39	=39
2F	0f	2c	2a	2r
1F	.	2c	1a	1cc
.	.	2c	.	.
2F	.	[2f	2a	2cc
=40	=40	=40	=40	=40
2.B-	0r	4f]	2b-	2.dd
.	.	4e	.	.
.	.	2d	2f	.
4A	.	.	.	4cc
2G	.	2e	2g	2b-
2F	.	[2f	2c	[2a
=41	=41	=41	=41	=41
1B-	0r	4f]	1d	2a]
.	.	4e	.	.
.	.	1d	.	2g
1A	.	.	1e	1a
.	.	2c#	.	.
=42	=42	=42	=42	=42
1D	1f#	2r	1a	2r
.	.	2d	.	2dd
2D	2f#	2d	2a	2dd
[2G	[2g	[2B	[2d	[2dd
=43	=43	=43	=43	=43
2G]	2g]	2B]	2d]	2dd]
2C	2e	2c	2g	2ee
2C	2e	1c	2g	2ee
[2F	[2f	.	[2a	[2cc
=44	=44	=44	=44	=44
2F]	2f]	2.A	2a]	2cc]
2D	2f	.	2f	2dd
.	.	4A	.	.
1C	[1e	1c	1g	[1ee
=45	=45	=45	=45	=45
2r	1e]	2r	2r	1ee]
2c	.	2c	2g	.
2B	1r	2d	2g	1r
2A	.	2f	2a	.
=46	=46	=46	=46	=46
1c	0r	1e	2g	0r
.	.	.	1g	.
2B	.	2d	.	.
2A	.	2c	2f#	.
=47	=47	=47	=47	=47
1G	2r	1d	2g	2r
.	2g	.	2b	2dd
1r	2f	1r	2a	2dd
.	2e	.	2cc	2ee
=48	=48	=48	=48	=48
0r	1g	1r	1b	1dd
.	2f	2r	2a	2dd
.	2e	[2g	2g	2cc
=49	=49	=49	=49	=49
0r	1d	2g]	2.a	1dd
.	.	2f	.	.
.	.	.	4b	.
.	1c	2e	2.cc	2.ee
.	.	2g	.	.
.	.	.	4b	8dd
.	.	.	.	8cc
=50	=50	=50	=50	=50
1r	0r	2f	2a	4dd
.	.	.	.	4cc
.	.	2e	2g	1cc
1G	.	1d	2r	.
.	.	.	[2g	2b
=51	=51	=51	=51	=51
0C	1g	2c	2g]	1cc
.	.	1g	1c	.
.	2.c	.	.	1gg
.	.	[2c	[2e	.
.	4d	.	.	.
=52	=52	=52	=52	=52
1C	2e	2c]	4e]	1cc
.	.	.	4f	.
.	1c	2e	1g	.
1G	.	1d	.	2dd
.	2B	.	2g	2dd
=53	=53	=53	=53	=53
0C	4c	1c	0g	2.ee
.	4d	.	.	.
.	4e	.	.	.
.	4f	.	.	4dd
.	1e	[1G	.	1cc
=54	=54	=54	=54	=54
1G	1d	1G]	1g	1b
1r	1r	1r	1r	1r
=55	=55	=55	=55	=55
1G	0r	1d	1g	1b
[1c	.	[1e	[1g	[1cc
=56	=56	=56	=56	=56
2c]	0r	2e]	2g]	2cc]
2B	.	2d	2g	2dd
2A	.	2c	2cc	2ee
2A	.	2c	2cc	2ff#
=57	=57	=57	=57	=57
1G	0r	1d	1b	1gg
1F	.	1f	1a	1cc
=58	=58	=58	=58	=58
1C	0r	1e	1g	1cc
2G	.	2d	2g	2b
2A	.	2c	[2e	2cc
=59	=59	=59	=59	=59
1F	0r	2c	2e]	1a
.	.	4B	2d	.
.	.	4A	.	.
[1E	.	1B	1e	2g#
.	.	.	.	[2b
=60	=60	=60	=60	=60
1E]	2r	1e	1g#	2b]
.	2e	.	.	2b
1r	2e	1r	2g#	1cc
.	[2f	.	[2a	.
=61	=61	=61	=61	=61
0r	2f]	1r	2a]	2dd
.	2g	.	2b	1ee
.	2a	2r	2cc	.
.	2f	2a	2a	2dd
=62	=62	=62	=62	=62
1r	1e	2a	1b	1ee
.	.	2g#	.	.
1A	1c	2.a	1e	1ee
.	.	8g	.	.
.	.	8f	.	.
=63	=63	=63	=63	=63
2A	2c	0e	2a	2ee
2G#	2B	.	2b	2ee
1A	[1A	.	1cc#	1ee
=64	=64	=64	=64	=64
1D	1A]	0d	2.dd	1ff#
.	.	.	4cc	.
1G	1B	.	4b	2.gg
.	.	.	4a	.
.	.	.	[2g	.
.	.	.	.	4ff
=65	=65	=65	=65	=65
0C	0c	2.g	4g]	2.ee
.	.	.	4f	.
.	.	.	4e	.
.	.	4f	4f	4dd
.	.	1e	1g	1cc
=66	=66	=66	=66	=66
0G	0B	0d	0g	0dd
*	*	*	*	*-
!! Crucifixus
*Itenor	*Icalto	*Icant	*Icant
!Tenor	!Altus	!Cantus 2	!Cantus 1
*clefGv2	*clefG2	*clefG2	*clefG2
*k[]	*k[]	*k[]	*k[]
*C:ion	*C:ion	*C:ion	*C:ion
*M4/2	*M4/2	*M4/2	*M4/2
=67	=67	=67	=67
0G	0g	0b	0dd
=68	=68	=68	=68
1G	1g	1dd	1b
1c	1g	1cc	1ee
=69	=69	=69	=69
1d	1f#	1a	1dd
2.G	2.g	2.dd	2.b
4G	4g	4dd	4b
=70	=70	=70	=70
2G	2g	2dd	2b
2A	2e	2cc	2a
4G	4g	1b	[1dd
4A	4f	.	.
4B	4d	.	.
4c	4e	.	.
=71	=71	=71	=71
4d	4f	2.a	2dd]
4e	4g	.	.
2.f	2.a	.	4cc
.	.	4b	4b
.	.	4cc	4a
8e	4g	4dd	4b
8d	.	.	.
2c	[2g	2ee	4cc
.	.	.	4b
=72	=72	=72	=72
1d	2g]	1dd	4a
.	.	.	4g
.	2f#	.	2a
1G	1g	2r	2b
.	.	2b	2dd
=73	=73	=73	=73
0r	0r	2a	2cc
.	.	2b	2dd
.	.	4g	4b
.	.	4a	4a
.	.	4b	4g
.	.	4cc	4a
=74	=74	=74	=74
1g	2r	1dd	4b
.	.	.	4cc
.	2b	.	1dd
2f#	2a	2r	.
2g	2b	2gg	2dd
=75	=75	=75	=75
4e	2g	2.gg	2.ee
4d	.	.	.
4c	1cc	.	.
4d	.	4ff	4ff
4e	.	2ee	2.gg
4f	.	.	.
[2g	[2b	4dd	.
.	.	4cc	8ff
.	.	.	8ee
=76	=76	=76	=76
2g]	4b]	4b	2dd
.	4g	4a	.
2e	2.cc	2g	1ee
1f	.	1a	.
.	4b	.	.
.	[2a	.	2dd
=77	=77	=77	=77
1e	2a]	1b	0ee
.	2g#	.	.
2r	2a	2cc	.
[2a	[2cc	[2ee	.
=78	=78	=78	=78
2a]	2cc]	2ee]	1r
2g	2b	2ee	.
2f	2a	2dd	2r
2e	2g	2cc	[2gg
=79	=79	=79	=79
1d	2.a	1dd	2gg]
.	.	.	2ff
.	4b	.	.
2c	2cc	2.gg	2ee
2B	[2g	.	2dd
.	.	4ff	.
=80	=80	=80	=80
2.c	4g]	4ee	2cc
.	4f	4dd	.
.	4e	2.cc	2.ee
4B	4d	.	.
1A	1c	.	.
.	.	4dd	4dd
.	.	[2ee	2cc
=81	=81	=81	=81
0G	[0g	2ee]	2b
.	.	4dd	1cc
.	.	4cc	.
.	.	1dd	.
.	.	.	2b
=82	=82	=82	=82
0c	1g]	0ee	1cc
.	2r	.	2r
.	2c	.	2cc
=83	=83	=83	=83
0r	2f	0r	2a
.	2g	.	2b
.	2a	.	2cc
.	2b	.	2dd
=84	=84	=84	=84
2r	1cc	2r	1ee
2c	.	2g	.
2A	2cc	2cc	2ee
2B	2b	2dd	2dd
=85	=85	=85	=85
2c	1a	2ee	2cc
2d	.	2ff	2a
1e	4g	1gg	2r
.	4a	.	.
.	4b	.	[2ee
.	4a	.	.
=86	=86	=86	=86
2e	4b	2gg	4ee]
.	4cc	.	4ee
2d	2dd	2ff	2a
1c	1g	1ee	1cc
=87	=87	=87	=87
2g	2r	1dd	2b
2g	2b	.	2dd
1c	1cc	1r	1ee
=88	=88	=88	=88
2G	2b	2r	2dd
2G	1g	2dd	2b
4c	.	1ee	2cc
4d	.	.	.
4e	[2g	.	4b
4f	.	.	4a
=89	=89	=89	=89
1g	4g]	2dd	4b
.	4a	.	4cc
.	4b	2b	4dd
.	4g	.	4ee
2.f	[1a	1cc	[1ff
4e	.	.	.
=90	=90	=90	=90
1d	2a]	1dd	1ff]
.	2b	.	.
[1c	2.cc	2g	2ee
.	.	[2cc	[2ee
.	8b	.	.
.	8a	.	.
=91	=91	=91	=91
1c]	1g	4cc]	4ee]
.	.	4dd	4ff
.	.	2ee	2gg
2r	1r	2dd	2ff
[2c	.	2cc	[2ee
=92	=92	=92	=92
4c]	0r	2.gg	4ee]
4d	.	.	4dd
2e	.	.	4b
.	.	8ff	4cc
.	.	8ee	.
2d	.	4ff	4dd
.	.	4dd	4a
2c	.	2ee	2cc
=93	=93	=93	=93
2.g	1r	2dd	1b
.	.	2dd	.
8f	.	.	.
8e	.	.	.
4f	2r	2dd	2a
4d	.	.	.
2e	2g	2cc	2g
=94	=94	=94	=94
1d	2g	2.dd	2a
.	2f#	.	2a
.	.	4dd	.
1r	2.g	2dd	2.b
.	.	[2ee	.
.	4g	.	4b
=95	=95	=95	=95
0r	2g	4ee]	2b
.	.	4dd	.
.	2.a	2.ff	2.cc
.	4g	4ee	4b
.	2e	[2ee	2g
=96	=96	=96	=96
2r	1f	2ee]	1a
2d	.	2dd	.
2d	2e	1ee	2r
2c#	2e	.	2a
=97	=97	=97	=97
2.d	2.f	1r	2.a
4d	4f	.	4b
2e	2g	2r	2cc
[2f	[2a	[2ff	[2dd
=98	=98	=98	=98
4f]	4a]	4ff]	4dd]
4e	4g	4gg	4cc
2c	2g	2ee	1cc
1d	1f	2.ff	.
.	.	.	2b
.	.	8ee	.
.	.	8dd	.
=99	=99	=99	=99
1c	2g	2ee	2cc
.	2c	2cc	2ee
1r	2.g	2.b	2.dd
.	4g	4b	4dd
=100	=100	=100	=100
0r	2g	2b	2dd
.	2d	2dd	2ff
.	2e	2cc	2ee
.	2g	2b	2dd
=101	=101	=101	=101
1r	1c	4cc	4ee
.	.	4b	4dd
.	.	4a	4cc
.	.	4g	4b
2r	1d	2f	2a
2G	.	2b-	2dd
=102	=102	=102	=102
2.d	2.f	2.a	2.dd
4d	4f	4a	4dd
2d	2f	2a	2dd
2A	2e	2a	2cc
=103	=103	=103	=103
2B	2d	1g	2dd
1c	4c	.	1ee
.	4d	.	.
.	4e	1g	.
.	4f	.	.
2B	[2g	.	2dd
=104	=104	=104	=104
1A	2g]	1a	1cc
.	2f#	.	.
1G	1g	2dd	2b
.	.	2gg	2g
=105	=105	=105	=105
1r	1r	4ee	4a
.	.	4dd	4b
.	.	4ee	4cc
.	.	4ff	4dd
2r	2r	1gg	1ee
2c	2cc	.	.
=106	=106	=106	=106
4d	4a	1ff	2dd
4e	4g	.	.
4f	4a	.	2.cc
4g	4b	.	.
1a	1cc	2ee	.
.	.	.	4b
.	.	[2ff	[2a
=107	=107	=107	=107
1e	2b	4ff]	2a]
.	.	4ee	.
.	1cc	1ee	2g
2f	.	.	2a
2f	4b	2dd	2a
.	4a	.	.
=108	=108	=108	=108
0e	2g#	0ee	1cc
.	1a	.	.
.	.	.	1b
.	2g#	.	.
=109	=109	=109	=109
2r	1a	2r	2cc#
1d	.	1ff	1dd
.	2r	.	.
2A	[2a	2cc	2ee
=110	=110	=110	=110
1d	2a]	1dd	1ff
.	2b	.	.
4c	1cc	[1gg	[1ee
4d	.	.	.
4e	.	.	.
4f	.	.	.
=111	=111	=111	=111
2g	2cc	1gg]	2ee]
2G	2b	.	2dd
2A	2a	1r	2cc
2B	[2g	.	2b
=112	=112	=112	=112
2c	2g]	2r	1a
2d	2f#	1dd	.
1G	1g	.	1b
.	.	2ee	.
=113	=113	=113	=113
1d	2r	1ff	2a
.	2f	.	2b
[1c	4g	[1ee	1cc
.	4f	.	.
.	4e	.	.
.	4d	.	.
=114	=114	=114	=114
2c]	2c	2ee]	2g
2B	2d	2dd	2g
2A	1e	2cc	2a
2G	.	2b	2b
=115	=115	=115	=115
1A	2e	0a	0cc
.	4d	.	.
.	4c	.	.
1F	1f	.	.
=116	=116	=116	=116
0c	0e	0g	0cc
*-	*-	*-	*-
!! Et in Spiritum
**kern	**kern	**kern	**kern	**kern
*Ibass	*Itenor	*Itenor	*Icalto	*Icant
!Bassus	!Tenor 2	!Tenor 1	!Altus	!Cantus
*clefF4	*clefGv2	*clefGv2	*clefG2	*clefG2
*k[]	*k[]	*k[]	*k[]	*k[]
*C:ion	*C:ion	*C:ion	*C:ion	*C:ion
*M4/2	*M4/2	*M4/2	*M4/2	*M4/2
=117	=117	=117	=117	=117
1C	0r	1c	1g	1ee
2C	.	2g	2cc	2ee
[2c	.	[2g	[2cc	[2ee
=118	=118	=118	=118	=118
4c]	0r	4g]	4cc]	4ee]
4c	.	4g	4cc	4ee
2d	.	2f	2a	2dd
1A	.	1e	1a	1cc#
=119	=119	=119	=119	=119
2d	0r	2f#	2a	2dd
2.G	.	2.g	2.b	2.dd
4G	.	4g	4b	4dd
2G	.	2g	2b	2dd
=120	=120	=120	=120	=120
2.c	0r	2.e	2.g	2.cc
4c	.	4e	4g	4cc
2A	.	2e	2a	2cc
2F	.	2A	2a	2dd
=121	=121	=121	=121	=121
1E	1r	1B	1g#	1ee
1A	2r	2A	2a	2cc#
.	2A	2e	2a	2cc#
=122	=122	=122	=122	=122
0r	2d	2f	2a	2dd
.	1c	1g	1cc	1ee
.	2c	2g	2cc	2ee
=123	=123	=123	=123	=123
0r	2.G	2.g	2.b	2.dd
.	4G	4g	4b	4dd
.	2G	2g	2b	2dd
.	[2c	[2e	[2g	[2cc
=124	=124	=124	=124	=124
0r	2c]	2e]	2g]	2cc]
.	2e	2g	2g	2b
.	1d	1f#	1a	1dd
=125	=125	=125	=125	=125
2r	2c	2g	1cc	2ee
1F	1f	1a	.	1cc
.	.	.	1r	.
2F	2f	2a	.	2cc
=126	=126	=126	=126	=126
1B-	1d	1f	0r	1dd
2G	2e	2g	.	2b-
2F	2f	2c	.	2a
=127	=127	=127	=127	=127
2B-	2f	2.d	1r	2f
2B-	2d	.	.	2g
.	.	4d	.	.
2A	2.c	2e	2r	2a
[2F	.	[2f	[2a	[2cc
.	4B	.	.	.
=128	=128	=128	=128	=128
2F]	2A	2f]	2a]	2cc]
2F	1c	2f	2a	2cc
[1F	.	2f	1a	2.ff
.	2c	4F	.	.
.	.	4G	.	4ee
=129	=129	=129	=129	=129
1F]	2.f	4A	1a	2dd
.	.	4B	.	.
.	.	2c	.	2cc
.	4e	.	.	.
1F	2d	[1A	[1a	[1ff
.	2c	.	.	.
=130	=130	=130	=130	=130
1D	1d	1A]	1a]	1ff]
[1A	2c	2A	[1a	1ee
.	2e	2c	.	.
=131	=131	=131	=131	=131
1A]	2e	2c	1a]	2r
.	2e	2c	.	2cc
1r	2.a	2.f	2r	2cc
.	.	.	2a	2cc
.	4g	4e	.	.
=132	=132	=132	=132	=132
0r	2f	2d	4a	2ff
.	.	.	4a	.
.	2g	2c	1cc	2ee
.	2a	1f	.	2cc
.	4g	.	4b	2dd
.	4f	.	4a	.
=133	=133	=133	=133	=133
0r	2g	0e	2b	0ee
.	1a	.	2cc	.
.	.	.	1b	.
.	2g#	.	.	.
=134	=134	=134	=134	=134
2.F	2a	2.A	2a	0r
.	2f	.	1a	.
4G	.	4B	.	.
2A	2e	2c	.	.
2B-	[2d	2d	2f	.
=135	=135	=135	=135	=135
2G	2d]	2B-	2g	0r
2G	2e	2B-	2g	.
1F	[1f	1c	2.a	.
.	.	.	4g	.
=136	=136	=136	=136	=136
2.B-	1f]	1d	2f	0r
.	.	.	2b-	.
4A	.	.	.	.
2G	2g	2e	2b-	.
2F	2c	[2f	[2a	.
=137	=137	=137	=137	=137
1B-	1d	4f]	4a]	0r
.	.	4e	4g	.
.	.	1d	2g	.
1A	1e	.	1a	.
.	.	2c#	.	.
=138	=138	=138	=138	=138
1D	2f	2d	2r	2r
.	2d	2f	2a	2dd
1r	2G	2g	2b	2dd
.	2g	2c	2cc	2ee
=139	=139	=139	=139	=139
0r	1f	1d	1a	1ff
.	2g	2c	2.cc	2.ee
.	2a	2A	.	.
.	.	.	4b	4dd
=140	=140	=140	=140	=140
0r	2.e	2A	2a	2cc
.	.	2e	2g#	2b
.	4e	.	.	.
.	2e	2A	1a	2a
.	2f#	[2d	.	2a
=141	=141	=141	=141	=141
1G	1.g	2d]	0r	1.b-
.	.	2d	.	.
2G	.	2e	.	.
2A	2c	[2f	.	2a
=142	=142	=142	=142	=142
2B-	2.d	2f]	0r	2f
2B-	.	2d	.	2g
.	4d	.	.	.
2.A	2e	2.c	.	1a
.	2e	.	.	.
4G	.	4B	.	.
=143	=143	=143	=143	=143
2F	2d	2A	1r	0r
2E	2c#	2G	.	.
[1D	[1d	2A	2r	.
.	.	2d	2f	.
=144	=144	=144	=144	=144
1D]	1d]	2.f	2.a	2r
.	.	.	.	2a
.	.	4f	4a	.
1r	1r	2e	2g	2.cc
.	.	[2f	[2a	.
.	.	.	.	4cc
=145	=145	=145	=145	=145
0r	2r	4f]	4a]	2cc
.	.	4e	4g	.
.	2d	4d	4f	2dd
.	.	4c	4e	.
.	2.f	2B-	2d	2dd
.	.	2A	2a	2cc
.	4f	.	.	.
=146	=146	=146	=146	=146
0r	2f	2B-	2d	1b-
.	2g	2G	1e	.
.	2g	[1A	.	[1a
.	2f	.	[2d	.
=147	=147	=147	=147	=147
1r	2e	1A]	2d]	1a]
.	2e	.	2c#	.
[1d	[1f#	1r	2d	2r
.	.	.	[2a	[2dd
=148	=148	=148	=148	=148
2d]	2f#]	0r	2a]	2dd]
2G	2g	.	2b	2dd
2c	2g	.	2cc	2ee
2A	2c	.	2cc	2ff
=149	=149	=149	=149	=149
1.G	2d	0r	1.b	1gg
.	2d	.	.	.
.	2e	.	.	2g
2G	[2d	.	2g	2b
=150	=150	=150	=150	=150
2E	4d]	0r	2g	1cc
.	4c	.	.	.
2F	1c	.	2a	.
1D	.	.	1f	1dd
.	2B	.	.	.
=151	=151	=151	=151	=151
1C	0c	2r	2e	1ee
.	.	2.g	2e	.
2r	.	.	2e	2.gg
.	.	4f	.	.
[2c	.	4e	4c	.
.	.	4d	4d	4ff
=152	=152	=152	=152	=152
2c]	0r	2c	4e	2ee
.	.	.	4f	.
2B-	.	2d	1g	2dd
1A	.	2e	.	1cc
.	.	2c	2f#	.
=153	=153	=153	=153	=153
0G	1r	4d	1g	2b
.	.	4c	.	.
.	.	4B	.	2.dd
.	.	4A	.	.
.	2r	1B	2.dd	.
.	.	.	.	4cc
.	[2g	.	.	4b
.	.	.	4cc	4a
=154	=154	=154	=154	=154
0r	2g]	1r	2b	2g
.	2f	.	2a	2a
.	2e	2r	2g	2b
.	2e	[2g	2g	2cc
=155	=155	=155	=155	=155
0r	1d	2g]	1a	1dd
.	.	2f	.	.
.	2c	2e	1cc	2.gg
.	4c	2e	.	.
.	4d	.	.	4ff
=156	=156	=156	=156	=156
0r	4e	2c	2.cc	1ee
.	4f	.	.	.
.	4g	2c	.	.
.	4e	.	4b	.
.	2f	2d	2a	2dd
.	[2g	2e	2g	2cc
=157	=157	=157	=157	=157
1r	2g]	1d	1a	1dd
.	2f#	.	.	.
2r	2g	2G	2g	2b
2G	2d	2g	2b	2dd
=158	=158	=158	=158	=158
1C	1c	1g	1cc	1ee
1G	1d	1g	1b	1dd
!! coda
*Ibass	*Itenor	*Itenor	*Icalto	*Icant
!Bassus	!Tenor 2	!Tenor 1	!Altus	!Cantus
*clefF4	*clefGv2	*clefGv2	*clefG2	*clefG2
*k[]	*k[]	*k[]	*k[]	*k[]
*C:ion	*C:ion	*C:ion	*C:ion	*C:ion
*M3/2	*M3/2	*M3/2	*M3/2	*M3/2
=159	=159	=159	=159	=159
1r	2g	1r	2b	2dd
.	2g	.	2b	2dd
2r	2c	2r	2cc	2ee
=160	=160	=160	=160	=160
1r	2.g	1r	2.b	2.dd
.	4G	.	4b	4dd
2r	2A	2r	2a	2cc
=161	=161	=161	=161	=161
1r	2e	1r	2.g	2.b
.	1d	.	.	.
.	.	.	8f#	8a
.	.	.	8e	8g
2r	.	2r	2f#	2a
=162	=162	=162	=162	=162
2G	2B	2d	1g	1g
2G	2B	2e	.	.
2A	2c	2f	2r	2r
=163	=163	=163	=163	=163
2.G	2.B	2.e	1r	1r
4G	4B	4e	.	.
2F	2A	2d	2r	2r
=164	=164	=164	=164	=164
2.E	2.G	1c	2g	2ee
.	.	.	2e	2ee
4C	4A	.	.	.
2D	2F	2B	2d	2ff
=165	=165	=165	=165	=165
1C	2G	1c	2.g	2.ee
.	2G	.	.	.
.	.	.	4g	4ee
2r	2B-	2r	2f	2dd
=166	=166	=166	=166	=166
1r	2c	1.g	2.e	2.cc
.	1G	.	.	.
.	.	.	8d	8b
.	.	.	8c	8a
2r	.	.	2d	2b
=167	=167	=167	=167	=167
2r	2c	1e	2c	2cc
1c	1g	.	2r	2r
.	.	2e	2cc	2ee
=168	=168	=168	=168	=168
1F	1a	1c	1cc	1ff
2c	2g	2e	2cc	2ee
=169	=169	=169	=169	=169
2C	2e	2g	2cc	2ee
2C	2c	2g	2cc	2ee
2F	2A	2a	2cc	2ff
=170	=170	=170	=170	=170
2.C	2c	2.g	2.cc	2.ee
.	2G	.	.	.
4C	.	4g	4cc	4ee
2D	2d	2f	[2a	2dd
=171	=171	=171	=171	=171
2A	2e	2.e	2a]	2.cc
1G	1g	.	2r	.
.	.	8d	.	8b
.	.	8c	.	8a
.	.	2d	2d	2b
=172	=172	=172	=172	=172
2.C	2.g	2c	2.e	1.cc
.	.	4e	.	.
4D	4f	4d	4f	.
2E	4e	4c	2g	.
.	4d	4B	.	.
=173	=173	=173	=173	=173
1.F	2c	2A	1.a	1.cc
.	1f	2.A	.	.
.	.	4B	.	.
=174	=174	=174	=174	=174
1.C	1.e	1.c	1.g	1.cc
==	==	==	==	==
*-	*-	*-	*-	*-
!!!CDT: 1525/^1526/-1594/2/2
!!!OCY: Italia
!!!AGN: Mass (Parody)
!!!AST: renaissance, vocal
!!!ASW: Motet 1572 (Palestrina)
!!!PWK: Masses, Book 12
!!!RNB: Cadence finals: G,D
!!!YOR: Le Opere Complete, v. 29, p. 54
!!!YOO: Rome, Italy: Fratelli Scalera
!!!END: 1992//
!!!EED: John Miller
!!!YEC: Copyright 2000, John Miller
!!!YEN: United States of America
!!!YEM: Rights to all derivative electronic formats reserved.
!!!YEM: Refer to licensing agreement for further details.
!!!YEM: This file must be accompanied by the licensing agreement.
!!!YEM: A copy of the licensing agreement may be found at http://www.music-cog.ohio-state.edu/HumdrumDatabases/Palestrina/license.txt
!!!EMD: converted to Humdrum by Bret Aarden
